X: 3909
T: Blackberry Blossom, The
R: reel
M: 4/4
K: Dmajor
|:dB|AFEG FDDF|AFEF D2 dB|AFEG FDDF|1 EBBA B2:|2 EBBA B3c||
d3 f edBc|dcde f3 d|Addf edBA|FABc B3 c|
d3 f edBc|dAde f2 de|fdec dcBA|FBBA B4||

